resources/svg/folder-user-fill.svg

<svg fill="currentColor" viewBox="0 0 24 24" xmlns="http://www.w3.org/2000/svg"><path d="M12.4142 5H21C21.5523 5 22 5.44772 22 6V20C22 20.5523 21.5523 21 21 21H3C2.44772 21 2 20.5523 2 20V4C2 3.44772 2.44772 3 3 3H10.4142L12.4142 5ZM12 13C13.3807 13 14.5 11.8807 14.5 10.5C14.5 9.11929 13.3807 8 12 8C10.6193 8 9.5 9.11929 9.5 10.5C9.5 11.8807 10.6193 13 12 13ZM8 18H16C16 15.7909 14.2091 14 12 14C9.79086 14 8 15.7909 8 18Z"/></svg>

<svg xmlns="http://www.w3.org/2000/svg" viewBox="0 0 24 24" fill="currentColor">
    <g>
        <path fill="none" d="M0 0h24v24H0z"/>
        <path d="M12.414 5H21a1 1 0 0 1 1 1v14a1 1 0 0 1-1 1H3a1 1 0 0 1-1-1V4a1 1 0 0 1 1-1h7.414l2 2zM12 13a2.5 2.5 0 1 0 0-5 2.5 2.5 0 0 0 0 5zm-4 5h8a4 4 0 1 0-8 0z"/>
    </g>
</svg>
